src/assets/icons/remotes/webdav.svg

<svg width="24" height="24" viewBox="0 0 24 24" fill="currentColor" xmlns="http://www.w3.org/2000/svg">
    <path
        d="M12.9414 6.16406C13.6797 5.8125 14.1914 5.05859 14.1914 4.1875C14.1914 2.98047 13.2109 2 12.0039 2C10.7969 2 9.81641 2.98047 9.81641 4.1875C9.81641 5.05859 10.3281 5.8125 11.0664 6.16406V10.0234C10.957 10.0742 10.8516 10.1367 10.7539 10.207L7.62501 8.41797C7.68751 7.60547 7.28907 6.79297 6.53517 6.35547C5.48829 5.75 4.15235 6.10938 3.54688 7.15625C2.94141 8.20312 3.30079 9.53906 4.34766 10.1445C4.39845 10.1758 4.44923 10.2031 4.50391 10.2266V13.7734C4.45313 13.7969 4.39845 13.8242 4.34766 13.8555C3.30079 14.4609 2.94141 15.7969 3.54688 16.8438C4.15235 17.8906 5.48829 18.25 6.53517 17.6445C7.28907 17.2109 7.6836 16.3945 7.6211 15.582L9.59376 14.4531C9.14454 14.0156 8.81641 13.4531 8.66407 12.8242L6.69142 13.957C6.58985 13.8867 6.48829 13.8281 6.37892 13.7734V10.2266C6.48829 10.1758 6.59376 10.1133 6.69142 10.043L9.82032 11.832C9.81641 11.8867 9.81251 11.9414 9.81251 12C9.81251 12.8711 10.3242 13.625 11.0625 13.9766V17.8359C10.3242 18.1875 9.81251 18.9414 9.81251 19.8125C9.81251 21.0195 10.793 22 12 22C13.207 22 14.1875 21.0195 14.1875 19.8125C14.1875 18.9414 13.6758 18.1875 12.9375 17.8359V13.9766C13.0469 13.9258 13.1524 13.8633 13.25 13.793L16.3789 15.582C16.3164 16.3945 16.7149 17.207 17.4649 17.6445C18.5117 18.25 19.8477 17.8906 20.4531 16.8438C21.0586 15.7969 20.6992 14.4609 19.6524 13.8555C19.6016 13.8242 19.5469 13.7969 19.4961 13.7734V10.2266C19.5508 10.2031 19.6016 10.1758 19.6524 10.1445C20.6992 9.53906 21.0586 8.20312 20.4531 7.15625C19.8477 6.10938 18.5195 5.75 17.4727 6.35547C16.7188 6.78906 16.3242 7.60547 16.3867 8.41797L14.4102 9.54687C14.8594 9.98437 15.1875 10.5469 15.3399 11.1758L17.3164 10.043C17.418 10.1133 17.5195 10.1719 17.6289 10.2266V13.7734C17.5195 13.8242 17.4141 13.8867 17.3164 13.9531L14.1875 12.1641C14.1914 12.1094 14.1953 12.0547 14.1953 11.9961C14.1953 11.125 13.6836 10.3711 12.9453 10.0195V6.16016L12.9414 6.16406Z" />
</svg>

<svg xmlns="http://www.w3.org/2000/svg" width="24" height="24" fill="currentColor" viewBox="0 0 24 24"><path d="M12.941 6.164A2.189 2.189 0 0 0 12.004 2a2.189 2.189 0 0 0-.938 4.164v3.86a2 2 0 0 0-.312.183L7.625 8.418a2.19 2.19 0 0 0-4.078-1.262 2.186 2.186 0 0 0 .957 3.07v3.547a2.186 2.186 0 0 0-.957 3.07 2.186 2.186 0 0 0 4.074-1.261l1.973-1.129a3.4 3.4 0 0 1-.93-1.629l-1.973 1.133a2.5 2.5 0 0 0-.312-.184v-3.546q.166-.078.312-.184l3.13 1.789q-.008.082-.008.168a2.19 2.19 0 0 0 1.25 1.977v3.859A2.189 2.189 0 0 0 12 22a2.189 2.189 0 0 0 .936-4.164v-3.86q.165-.076.313-.183l3.129 1.789a2.186 2.186 0 0 0 4.074 1.262 2.186 2.186 0 0 0-.957-3.07v-3.547q.082-.036.156-.082a2.186 2.186 0 0 0 .801-2.989 2.183 2.183 0 0 0-4.066 1.262L14.41 9.547c.45.437.777 1 .93 1.629l1.976-1.133q.151.103.313.184v3.546c-.11.051-.215.114-.313.18l-3.128-1.789q.006-.082.007-.168a2.19 2.19 0 0 0-1.25-1.976V6.16z"/></svg>
